X:5062
T:The Bannfoot Ferry
M:6/8
L:1/8
Q:180
C:Aidan Crossey
R:Jig
K:Dmix
|:ABA AGA|cBc dBG|ABA AGA|cBc d3|
ABA AGA|cBc dBG|ABA GEC|1 D3 DFG:||
2 D3 D3||
|:ABc dBd|dBd B2G|ABc dBd|dBG A3|
ABc dBd|dBd B2G|ABA GEC|1 D3 DFG:||
2 D3 D3||
